src/img/uml.svg

<svg xmlns="http://www.w3.org/2000/svg" version="1.1" xmlns:xlink="http://www.w3.org/1999/xlink" xmlns:svgjs="http://svgjs.com/svgjs" width="898" height="812"><path d="M 424 365.046875 v -10 q 0 -10 10 -10 h 194.5 q 10 0 10 -10 L 638.5 306.2578125" fill="transparent" stroke-dasharray="5 5" stroke-width="2" stroke="#7a7a7a"></path><path d="M 424 365.046875 v -10 q 0 -10 -10 -10 h -194.5 q -10 0 -10 -10 L 209.5 328.046875" fill="transparent" stroke-dasharray="5 5" stroke-width="2" stroke="#7a7a7a"></path><line x1="424" y1="535.78125" x2="424" y2="498.78125" stroke-dasharray="5 5" stroke-width="2" stroke="#7a7a7a"></line><g><path d="M 15 41.7890625 h389 v278.2578125 q 0 5 -5 5 h-379 q -5 0 -5 -5 z" fill="#00ff00" opacity="0.5"></path><path d="M 15 41.7890625 v-16.7890625 q 0 -5 5 -5 h379 q 5 0 5 5 v16.7890625 z" fill="#000000" opacity="1"></path><rect width="389" height="305.046875" rx="5" ry="5" x="15" y="20" fill="transparent" stroke-width="2" stroke="#000000"></rect><text x="20" y="37.1015625" font-family="sans-serif" fill="#ffffff" svgjs:data="{&quot;leading&quot;:&quot;1.3&quot;}">ZIF_ABAPGIT_AJSON_READER</text><text x="20" y="58.890625" font-family="sans-serif" svgjs:data="{&quot;leading&quot;:&quot;1.3&quot;}">exists(iv_path): rv_exists</text><text x="20" y="80.6796875" font-family="sans-serif" svgjs:data="{&quot;leading&quot;:&quot;1.3&quot;}">members(iv_path): rt_members</text><text x="20" y="102.46875" font-family="sans-serif" svgjs:data="{&quot;leading&quot;:&quot;1.3&quot;}">get(iv_path): rv_value</text><text x="20" y="124.2578125" font-family="sans-serif" svgjs:data="{&quot;leading&quot;:&quot;1.3&quot;}">get_node_type(iv_path): rv_node_type</text><text x="20" y="146.046875" font-family="sans-serif" svgjs:data="{&quot;leading&quot;:&quot;1.3&quot;}">get_boolean(iv_path): rv_value</text><text x="20" y="167.8359375" font-family="sans-serif" svgjs:data="{&quot;leading&quot;:&quot;1.3&quot;}">get_integer(iv_path): rv_value</text><text x="20" y="189.625" font-family="sans-serif" svgjs:data="{&quot;leading&quot;:&quot;1.3&quot;}">get_number(iv_path): rv_value</text><text x="20" y="211.4140625" font-family="sans-serif" svgjs:data="{&quot;leading&quot;:&quot;1.3&quot;}">get_date(iv_path): rv_value</text><text x="20" y="233.203125" font-family="sans-serif" svgjs:data="{&quot;leading&quot;:&quot;1.3&quot;}">get_timestamp(iv_path): rv_value</text><text x="20" y="254.9921875" font-family="sans-serif" svgjs:data="{&quot;leading&quot;:&quot;1.3&quot;}">get_string(iv_path): rv_value</text><text x="20" y="276.78125" font-family="sans-serif" svgjs:data="{&quot;leading&quot;:&quot;1.3&quot;}">slice(iv_path): ri_json</text><text x="20" y="298.5703125" font-family="sans-serif" svgjs:data="{&quot;leading&quot;:&quot;1.3&quot;}">to_abap(): ev_container</text><text x="20" y="320.359375" font-family="sans-serif" svgjs:data="{&quot;leading&quot;:&quot;1.3&quot;}">array_to_string_table(iv_path): rt_string_table</text></g><g><path d="M 444 41.7890625 h389 v256.46875 q 0 5 -5 5 h-379 q -5 0 -5 -5 z" fill="#00ff00" opacity="0.5"></path><path d="M 444 41.7890625 v-16.7890625 q 0 -5 5 -5 h379 q 5 0 5 5 v16.7890625 z" fill="#000000" opacity="1"></path><rect width="389" height="283.2578125" rx="5" ry="5" x="444" y="20" fill="transparent" stroke-width="2" stroke="#000000"></rect><text x="449" y="37.1015625" font-family="sans-serif" fill="#ffffff" svgjs:data="{&quot;leading&quot;:&quot;1.3&quot;}">ZIF_ABAPGIT_AJSON_WRITER</text><text x="449" y="58.890625" font-family="sans-serif" svgjs:data="{&quot;leading&quot;:&quot;1.3&quot;}">clear()</text><text x="449" y="80.6796875" font-family="sans-serif" svgjs:data="{&quot;leading&quot;:&quot;1.3&quot;}">set(...)</text><text x="449" y="102.46875" font-family="sans-serif" svgjs:data="{&quot;leading&quot;:&quot;1.3&quot;}">set_boolean(...)</text><text x="449" y="124.2578125" font-family="sans-serif" svgjs:data="{&quot;leading&quot;:&quot;1.3&quot;}">set_string(...)</text><text x="449" y="146.046875" font-family="sans-serif" svgjs:data="{&quot;leading&quot;:&quot;1.3&quot;}">set_integer(...)</text><text x="449" y="167.8359375" font-family="sans-serif" svgjs:data="{&quot;leading&quot;:&quot;1.3&quot;}">set_date(...)</text><text x="449" y="189.625" font-family="sans-serif" svgjs:data="{&quot;leading&quot;:&quot;1.3&quot;}">set_timestamp(...)</text><text x="449" y="211.4140625" font-family="sans-serif" svgjs:data="{&quot;leading&quot;:&quot;1.3&quot;}">set_null(iv_path)</text><text x="449" y="233.203125" font-family="sans-serif" svgjs:data="{&quot;leading&quot;:&quot;1.3&quot;}">delete(iv_path)</text><text x="449" y="254.9921875" font-family="sans-serif" svgjs:data="{&quot;leading&quot;:&quot;1.3&quot;}">touch_array(...)</text><text x="449" y="276.78125" font-family="sans-serif" svgjs:data="{&quot;leading&quot;:&quot;1.3&quot;}">push(...)</text><text x="449" y="298.5703125" font-family="sans-serif" svgjs:data="{&quot;leading&quot;:&quot;1.3&quot;}">stringify(iv_indent): rv_json</text></g><g><path d="M229.5 386.8359375H618.5V490.78125Q618.5 495.78125 613.5 495.78125H234.5Q229.5 495.78125 229.5 490.78125Z " fill="#00ff00" opacity="0.5"></path><path d="M229.5 386.8359375V370.046875Q229.5 365.046875 234.5 365.046875H613.5Q618.5 365.046875 618.5 370.046875V386.8359375Z " fill="#000000" opacity="1"></path><rect width="389" height="130.734375" rx="5" ry="5" x="229.5" y="365.046875" fill="transparent" stroke-width="2" stroke="#000000"></rect><text x="234.5" y="382.1484375" font-family="sans-serif" fill="#ffffff" svgjs:data="{&quot;leading&quot;:&quot;1.3&quot;}">ZIF_ABAPGIT_AJSON</text><text x="234.5" y="403.9375" font-family="sans-serif" svgjs:data="{&quot;leading&quot;:&quot;1.3&quot;}">freeze()</text><text x="234.5" y="425.7265625" font-family="sans-serif" svgjs:data="{&quot;leading&quot;:&quot;1.3&quot;}">keep_item_order()</text><text x="234.5" y="447.515625" font-family="sans-serif" svgjs:data="{&quot;leading&quot;:&quot;1.3&quot;}">mt_json_tree</text><text x="234.5" y="469.3046875" font-family="sans-serif" svgjs:data="{&quot;leading&quot;:&quot;1.3&quot;}">version</text><text x="234.5" y="491.09375" font-family="sans-serif" svgjs:data="{&quot;leading&quot;:&quot;1.3&quot;}">origin</text></g><g><path d="M229.5 601.1484375H618.5V726.8828125Q618.5 731.8828125 613.5 731.8828125H234.5Q229.5 731.8828125 229.5 726.8828125Z " fill="#ff0000" opacity="0.5"></path><rect width="389" height="43.578125" x="229.5" y="557.5703125" fill="#00ff00" opacity="0.5"></rect><path d="M229.5 557.5703125V540.78125Q229.5 535.78125 234.5 535.78125H613.5Q618.5 535.78125 618.5 540.78125V557.5703125Z " fill="#000000" opacity="1"></path><rect width="389" height="196.1015625" rx="5" ry="5" x="229.5" y="535.78125" fill="transparent" stroke-width="2" stroke="#000000"></rect><text x="234.5" y="552.8828125" font-family="sans-serif" fill="#ffffff" svgjs:data="{&quot;leading&quot;:&quot;1.3&quot;}">ZCL_ABAPGIT_AJSON</text><text x="234.5" y="574.671875" font-family="sans-serif" svgjs:data="{&quot;leading&quot;:&quot;1.3&quot;}">parse(...): ro_instance</text><text x="234.5" y="596.4609375" font-family="sans-serif" svgjs:data="{&quot;leading&quot;:&quot;1.3&quot;}">create_empty(ii_custom_mapping): ro_instance</text><text x="234.5" y="618.25" font-family="sans-serif" svgjs:data="{&quot;leading&quot;:&quot;1.3&quot;}">get_item(iv_path): rv_item</text><text x="234.5" y="640.0390625" font-family="sans-serif" svgjs:data="{&quot;leading&quot;:&quot;1.3&quot;}">prove_path_exists(iv_path): rt_node_stack</text><text x="234.5" y="661.828125" font-family="sans-serif" svgjs:data="{&quot;leading&quot;:&quot;1.3&quot;}">delete_subtree(...): rv_deleted</text><text x="234.5" y="683.6171875" font-family="sans-serif" svgjs:data="{&quot;leading&quot;:&quot;1.3&quot;}">mv_read_only</text><text x="234.5" y="705.40625" font-family="sans-serif" svgjs:data="{&quot;leading&quot;:&quot;1.3&quot;}">mi_custom_mapping</text><text x="234.5" y="727.1953125" font-family="sans-serif" svgjs:data="{&quot;leading&quot;:&quot;1.3&quot;}">mv_keep_item_order</text></g><polygon points="424,498.78125 419,505.78125 429,505.78125" fill="white" stroke-width="2" stroke="#7a7a7a"></polygon><polygon points="209.5,328.046875 204.5,335.046875 214.5,335.046875" fill="white" stroke-width="2" stroke="#7a7a7a"></polygon><polygon points="638.5,306.2578125 633.5,313.2578125 643.5,313.2578125" fill="white" stroke-width="2" stroke="#7a7a7a"></polygon><defs></defs></svg>

<svg xmlns="http://www.w3.org/2000/svg" xmlns:svgjs="http://svgjs.com/svgjs" width="898" height="812"><path d="M424 365.047v-10q0-10 10-10h194.5q10 0 10-10v-28.79M424 365.047v-10q0-10-10-10H219.5q-10 0-10-10v-7" fill="transparent" stroke-dasharray="5 5" stroke-width="2" stroke="#7a7a7a"/><path stroke-dasharray="5 5" stroke-width="2" stroke="#7a7a7a" d="M424 535.781v-37"/><path d="M15 41.79h389v278.257q0 5-5 5H20q-5 0-5-5z" fill="#0f0" opacity=".5"/><path d="M15 41.79V25q0-5 5-5h379q5 0 5 5v16.79z"/><rect width="389" height="305.047" rx="5" ry="5" x="15" y="20" fill="transparent" stroke-width="2" stroke="#000"/><text x="20" y="37.102" font-family="sans-serif" fill="#fff" svgjs:data="{&quot;leading&quot;:&quot;1.3&quot;}">ZIF_ABAPGIT_AJSON_READER</text><text x="20" y="58.891" font-family="sans-serif" svgjs:data="{&quot;leading&quot;:&quot;1.3&quot;}">exists(iv_path): rv_exists</text><text x="20" y="80.68" font-family="sans-serif" svgjs:data="{&quot;leading&quot;:&quot;1.3&quot;}">members(iv_path): rt_members</text><text x="20" y="102.469" font-family="sans-serif" svgjs:data="{&quot;leading&quot;:&quot;1.3&quot;}">get(iv_path): rv_value</text><text x="20" y="124.258" font-family="sans-serif" svgjs:data="{&quot;leading&quot;:&quot;1.3&quot;}">get_node_type(iv_path): rv_node_type</text><text x="20" y="146.047" font-family="sans-serif" svgjs:data="{&quot;leading&quot;:&quot;1.3&quot;}">get_boolean(iv_path): rv_value</text><text x="20" y="167.836" font-family="sans-serif" svgjs:data="{&quot;leading&quot;:&quot;1.3&quot;}">get_integer(iv_path): rv_value</text><text x="20" y="189.625" font-family="sans-serif" svgjs:data="{&quot;leading&quot;:&quot;1.3&quot;}">get_number(iv_path): rv_value</text><text x="20" y="211.414" font-family="sans-serif" svgjs:data="{&quot;leading&quot;:&quot;1.3&quot;}">get_date(iv_path): rv_value</text><text x="20" y="233.203" font-family="sans-serif" svgjs:data="{&quot;leading&quot;:&quot;1.3&quot;}">get_timestamp(iv_path): rv_value</text><text x="20" y="254.992" font-family="sans-serif" svgjs:data="{&quot;leading&quot;:&quot;1.3&quot;}">get_string(iv_path): rv_value</text><text x="20" y="276.781" font-family="sans-serif" svgjs:data="{&quot;leading&quot;:&quot;1.3&quot;}">slice(iv_path): ri_json</text><text x="20" y="298.57" font-family="sans-serif" svgjs:data="{&quot;leading&quot;:&quot;1.3&quot;}">to_abap(): ev_container</text><text x="20" y="320.359" font-family="sans-serif" svgjs:data="{&quot;leading&quot;:&quot;1.3&quot;}">array_to_string_table(iv_path): rt_string_table</text><path d="M444 41.79h389v256.468q0 5-5 5H449q-5 0-5-5z" fill="#0f0" opacity=".5"/><path d="M444 41.79V25q0-5 5-5h379q5 0 5 5v16.79z"/><rect width="389" height="283.258" rx="5" ry="5" x="444" y="20" fill="transparent" stroke-width="2" stroke="#000"/><text x="449" y="37.102" font-family="sans-serif" fill="#fff" svgjs:data="{&quot;leading&quot;:&quot;1.3&quot;}">ZIF_ABAPGIT_AJSON_WRITER</text><text x="449" y="58.891" font-family="sans-serif" svgjs:data="{&quot;leading&quot;:&quot;1.3&quot;}">clear()</text><text x="449" y="80.68" font-family="sans-serif" svgjs:data="{&quot;leading&quot;:&quot;1.3&quot;}">set(...)</text><text x="449" y="102.469" font-family="sans-serif" svgjs:data="{&quot;leading&quot;:&quot;1.3&quot;}">set_boolean(...)</text><text x="449" y="124.258" font-family="sans-serif" svgjs:data="{&quot;leading&quot;:&quot;1.3&quot;}">set_string(...)</text><text x="449" y="146.047" font-family="sans-serif" svgjs:data="{&quot;leading&quot;:&quot;1.3&quot;}">set_integer(...)</text><text x="449" y="167.836" font-family="sans-serif" svgjs:data="{&quot;leading&quot;:&quot;1.3&quot;}">set_date(...)</text><text x="449" y="189.625" font-family="sans-serif" svgjs:data="{&quot;leading&quot;:&quot;1.3&quot;}">set_timestamp(...)</text><text x="449" y="211.414" font-family="sans-serif" svgjs:data="{&quot;leading&quot;:&quot;1.3&quot;}">set_null(iv_path)</text><text x="449" y="233.203" font-family="sans-serif" svgjs:data="{&quot;leading&quot;:&quot;1.3&quot;}">delete(iv_path)</text><text x="449" y="254.992" font-family="sans-serif" svgjs:data="{&quot;leading&quot;:&quot;1.3&quot;}">touch_array(...)</text><text x="449" y="276.781" font-family="sans-serif" svgjs:data="{&quot;leading&quot;:&quot;1.3&quot;}">push(...)</text><text x="449" y="298.57" font-family="sans-serif" svgjs:data="{&quot;leading&quot;:&quot;1.3&quot;}">stringify(iv_indent): rv_json</text><path d="M229.5 386.836h389V490.78q0 5-5 5h-379q-5 0-5-5Z" fill="#0f0" opacity=".5"/><path d="M229.5 386.836v-16.79q0-5 5-5h379q5 0 5 5v16.79Z"/><rect width="389" height="130.734" rx="5" ry="5" x="229.5" y="365.047" fill="transparent" stroke-width="2" stroke="#000"/><text x="234.5" y="382.148" font-family="sans-serif" fill="#fff" svgjs:data="{&quot;leading&quot;:&quot;1.3&quot;}">ZIF_ABAPGIT_AJSON</text><text x="234.5" y="403.938" font-family="sans-serif" svgjs:data="{&quot;leading&quot;:&quot;1.3&quot;}">freeze()</text><text x="234.5" y="425.727" font-family="sans-serif" svgjs:data="{&quot;leading&quot;:&quot;1.3&quot;}">keep_item_order()</text><text x="234.5" y="447.516" font-family="sans-serif" svgjs:data="{&quot;leading&quot;:&quot;1.3&quot;}">mt_json_tree</text><text x="234.5" y="469.305" font-family="sans-serif" svgjs:data="{&quot;leading&quot;:&quot;1.3&quot;}">version</text><text x="234.5" y="491.094" font-family="sans-serif" svgjs:data="{&quot;leading&quot;:&quot;1.3&quot;}">origin</text><path d="M229.5 601.148h389v125.735q0 5-5 5h-379q-5 0-5-5Z" fill="red" opacity=".5"/><path fill="#0f0" opacity=".5" d="M229.5 557.57h389v43.578h-389z"/><path d="M229.5 557.57v-16.789q0-5 5-5h379q5 0 5 5v16.79Z"/><rect width="389" height="196.102" rx="5" ry="5" x="229.5" y="535.781" fill="transparent" stroke-width="2" stroke="#000"/><text x="234.5" y="552.883" font-family="sans-serif" fill="#fff" svgjs:data="{&quot;leading&quot;:&quot;1.3&quot;}">ZCL_ABAPGIT_AJSON</text><text x="234.5" y="574.672" font-family="sans-serif" svgjs:data="{&quot;leading&quot;:&quot;1.3&quot;}">parse(...): ro_instance</text><text x="234.5" y="596.461" font-family="sans-serif" svgjs:data="{&quot;leading&quot;:&quot;1.3&quot;}">create_empty(ii_custom_mapping): ro_instance</text><text x="234.5" y="618.25" font-family="sans-serif" svgjs:data="{&quot;leading&quot;:&quot;1.3&quot;}">get_item(iv_path): rv_item</text><text x="234.5" y="640.039" font-family="sans-serif" svgjs:data="{&quot;leading&quot;:&quot;1.3&quot;}">prove_path_exists(iv_path): rt_node_stack</text><text x="234.5" y="661.828" font-family="sans-serif" svgjs:data="{&quot;leading&quot;:&quot;1.3&quot;}">delete_subtree(...): rv_deleted</text><text x="234.5" y="683.617" font-family="sans-serif" svgjs:data="{&quot;leading&quot;:&quot;1.3&quot;}">mv_read_only</text><text x="234.5" y="705.406" font-family="sans-serif" svgjs:data="{&quot;leading&quot;:&quot;1.3&quot;}">mi_custom_mapping</text><text x="234.5" y="727.195" font-family="sans-serif" svgjs:data="{&quot;leading&quot;:&quot;1.3&quot;}">mv_keep_item_order</text><path fill="#fff" stroke-width="2" stroke="#7a7a7a" d="m424 498.781-5 7h10zM209.5 328.047l-5 7h10zM638.5 306.258l-5 7h10z"/></svg>
